jsapp/svg-icons/xls-file.svg

<?xml version="1.0" encoding="UTF-8"?>
<svg width="40px" height="40px" viewBox="0 0 40 40" version="1.1" xmlns="http://www.w3.org/2000/svg" xmlns:xlink="http://www.w3.org/1999/xlink">
    <!-- Generator: Sketch 50.2 (55047) - http://www.bohemiancoding.com/sketch -->
    <title>Icons/xls-file</title>
    <desc>Created with Sketch.</desc>
    <defs>
        <path d="M13.1328,11 L13.1328,16 L11.1328,16 L11.1328,11 C11.1328,9.898 12.0298,9 13.1328,9 L24.5468,9 L29.1328,13.586 L29.1328,16 L27.1328,16 L27.1328,15 L23.1328,15 L23.1328,11 L13.1328,11 Z M27.1328,29 L27.1328,28 L29.1328,28 L29.1328,29 C29.1328,30.103 28.2358,31 27.1328,31 L13.1328,31 C12.0298,31 11.1328,30.103 11.1328,29 L11.1328,28 L13.1328,28 L13.1328,29 L27.1328,29 Z M18.1328,18 L20.1328,18 L20.1328,24 L23.1328,24 L23.1328,26 L18.1328,26 L18.1328,18 Z M26.6328,20 C26.3568,20 26.1328,20.225 26.1328,20.5 C26.1328,20.775 26.3568,21 26.6328,21 L27.6328,21 C29.0108,21 30.1328,22.122 30.1328,23.5 C30.1328,24.878 29.0108,26 27.6328,26 L24.1328,26 L24.1328,24 L27.6328,24 C27.9088,24 28.1328,23.775 28.1328,23.5 C28.1328,23.225 27.9088,23 27.6328,23 L26.6328,23 C25.2548,23 24.1328,21.878 24.1328,20.5 C24.1328,19.122 25.2548,18 26.6328,18 L30.1328,18 L30.1328,20 L26.6328,20 Z M12.333,26 L10,26 L12.4,22 L10,18 L12.333,18 L13.566,20.056 L14.8,18 L17.133,18 L14.732,22 L17.133,26 L14.8,26 L13.566,23.944 L12.333,26 Z" id="path-1"></path>
    </defs>
    <g id="Icons/xls-file" stroke="none" stroke-width="1" fill="none" fill-rule="evenodd">
        <mask id="mask-2" fill="white">
            <use xlink:href="#path-1"></use>
        </mask>
        <use id="Mask" fill="#000000" xlink:href="#path-1"></use>
    </g>
</svg>

<svg height="40" viewBox="0 0 40 40" width="40" xmlns="http://www.w3.org/2000/svg"><path d="m13.1328 11v5h-2v-5c0-1.102.897-2 2-2h11.414l4.586 4.586v2.414h-2v-1h-4v-4zm14 18v-1h2v1c0 1.103-.897 2-2 2h-14c-1.103 0-2-.897-2-2v-1h2v1zm-9-11h2v6h3v2h-5zm8.5 2c-.276 0-.5.225-.5.5s.224.5.5.5h1c1.378 0 2.5 1.122 2.5 2.5s-1.122 2.5-2.5 2.5h-3.5v-2h3.5c.276 0 .5-.225.5-.5s-.224-.5-.5-.5h-1c-1.378 0-2.5-1.122-2.5-2.5s1.122-2.5 2.5-2.5h3.5v2zm-14.2998 6h-2.333l2.4-4-2.4-4h2.333l1.233 2.056 1.234-2.056h2.333l-2.401 4 2.401 4h-2.333l-1.234-2.056z" fill-rule="evenodd"/></svg>
